svgs/sharp-light/crate-empty.svg

<svg xmlns="http://www.w3.org/2000/svg" viewBox="0 0 512 512"><!--! Font Awesome Pro 6.6.0 by @fontawesome - https://fontawesome.com License - https://fontawesome.com/license (Commercial License) Copyright 2024 Fonticons, Inc. --><path d="M480 384L32 384l0 96 448 0 0-96zm0-32l0-96L32 256l0 96 448 0zm32 0l0 16 0 16 0 96 0 32-32 0L32 512 0 512l0-32 0-96 0-16 0-16 0-96 0-32 32 0 448 0 32 0 0 32 0 96zM64 304a16 16 0 1 1 32 0 16 16 0 1 1 -32 0zm368-16a16 16 0 1 1 0 32 16 16 0 1 1 0-32zM64 432a16 16 0 1 1 32 0 16 16 0 1 1 -32 0zm368-16a16 16 0 1 1 0 32 16 16 0 1 1 0-32z"/></svg>

<svg xmlns="http://www.w3.org/2000/svg" viewBox="0 0 512 512"><!--! Font Awesome Pro 6.4.2 by @fontawesome - https://fontawesome.com License - https://fontawesome.com/license (Commercial License) Copyright 2023 Fonticons, Inc. --><path d="M480 384H32v96H480V384zm0-32V256H32v96H480zm32 0v16 16 96 32H480 32 0V480 384 368 352 256 224H32 480h32v32 96zM64 304a16 16 0 1 1 32 0 16 16 0 1 1 -32 0zm368-16a16 16 0 1 1 0 32 16 16 0 1 1 0-32zM64 432a16 16 0 1 1 32 0 16 16 0 1 1 -32 0zm368-16a16 16 0 1 1 0 32 16 16 0 1 1 0-32z"/></svg>
